src/img/icons/nav-button.svg

<svg width="30" height="26" fill="none" xmlns="http://www.w3.org/2000/svg"><path d="M29 15H1c-.6 0-1-.9-1-2s.4-2 1-2h28c.6 0 1 .9 1 2s-.4 2-1 2z" fill="#006572"/><path d="M1 4h28c.6 0 1-.9 1-2s-.4-2-1-2H1C.4 0 0 .9 0 2s.4 2 1 2zm14 22h14c.6 0 1-.9 1-2s-.4-2-1-2H15c-.6 0-1 .9-1 2s.4 2 1 2z" fill="#515151"/></svg>

<svg width="30" height="26" viewBox="0 0 30 26" fill="none" xmlns="http://www.w3.org/2000/svg">
<path d="M29 15H1C0.4 15 0 14.1 0 13C0 11.9 0.4 11 1 11H29C29.6 11 30 11.9 30 13C30 14.1 29.6 15 29 15Z" fill="#006572"/>
<path d="M1 4H29C29.6 4 30 3.1 30 2C30 0.9 29.6 0 29 0H1C0.4 0 0 0.9 0 2C0 3.1 0.4 4 1 4ZM15 26H29C29.6 26 30 25.1 30 24C30 22.9 29.6 22 29 22H15C14.4 22 14 22.9 14 24C14 25.1 14.4 26 15 26Z" fill="#515151"/>
</svg>
